img/marketplace-arrow.svg

<svg xmlns="http://www.w3.org/2000/svg" width="131" height="24" viewBox="0 0 131 24" fill="none">
  <path d="M0.666376 7.62757C0.460695 7.81183 0.443327 8.12793 0.627582 8.33361C0.811838 8.53929 1.12794 8.55666 1.33362 8.37241L0.666376 7.62757ZM70.5 15.9999L70.6013 16.4896L70.5 15.9999ZM80.5 7.9999L80.0068 7.9177L80.5 7.9999ZM72.5 6.9999L72.0058 6.92387L72.5 6.9999ZM129.999 6.96664C129.981 6.69111 129.742 6.48264 129.467 6.50101L124.977 6.80034C124.701 6.81871 124.493 7.05696 124.511 7.33249C124.529 7.60802 124.768 7.81649 125.043 7.79813L129.034 7.53205L129.3 11.5232C129.319 11.7987 129.557 12.0072 129.833 11.9888C130.108 11.9705 130.317 11.7322 130.298 11.4567L129.999 6.96664ZM1.33362 8.37241C1.57964 8.15202 1.82632 7.93746 2.07366 7.72861L1.4285 6.96456C1.17363 7.17977 0.919584 7.40074 0.666376 7.62757L1.33362 8.37241ZM3.56525 6.54323C4.09176 6.15035 4.62096 5.78188 5.1526 5.43685L4.6082 4.59802C4.05803 4.95508 3.51095 5.33603 2.9672 5.74176L3.56525 6.54323ZM6.79641 4.4478C7.36127 4.134 7.92868 3.84501 8.49836 3.57971L8.07619 2.67319C7.48491 2.94855 6.89634 3.24834 6.31078 3.57363L6.79641 4.4478ZM10.2623 2.83537C10.8662 2.60629 11.4724 2.40208 12.0808 2.22148L11.7962 1.26284C11.1644 1.45038 10.5348 1.66247 9.90758 1.90039L10.2623 2.83537ZM13.9359 1.74397C14.5622 1.60683 15.1906 1.49303 15.8207 1.40127L15.6766 0.411707C15.0236 0.506804 14.372 0.624798 13.722 0.767108L13.9359 1.74397ZM17.7273 1.18982C18.3659 1.14062 19.0058 1.11248 19.647 1.10405L19.6338 0.104137C18.9722 0.112836 18.3109 0.14189 17.6505 0.192772L17.7273 1.18982ZM21.5696 1.13639C22.209 1.16582 22.8492 1.21342 23.4899 1.27788L23.59 0.282902C22.9321 0.216708 22.2738 0.167743 21.6156 0.137451L21.5696 1.13639ZM25.4037 1.51914C26.0384 1.61488 26.6731 1.72583 27.3076 1.85074L27.5007 0.869568C26.8524 0.741934 26.203 0.62839 25.5529 0.530328L25.4037 1.51914ZM29.1958 2.26263C29.821 2.41196 30.4456 2.5736 31.0693 2.74632L31.3362 1.7826C30.7017 1.60688 30.0656 1.44223 29.4281 1.28999L29.1958 2.26263ZM32.9284 3.2938C33.5446 3.48572 34.1594 3.68729 34.7726 3.89728L35.0966 2.95122C34.4751 2.7384 33.8514 2.53391 33.2257 2.33904L32.9284 3.2938ZM36.6013 4.54926C37.2084 4.77393 37.8135 5.00572 38.4163 5.24341L38.7831 4.31313C38.1743 4.07305 37.5626 3.83872 36.9484 3.61141L36.6013 4.54926ZM40.2193 5.97385C40.8194 6.22309 41.4167 6.47701 42.0109 6.73439L42.4084 5.81676C41.81 5.55759 41.2081 5.3017 40.6029 5.05035L40.2193 5.97385ZM43.7916 7.51896C44.3876 7.78566 44.98 8.05462 45.5686 8.32454L45.9855 7.41556C45.3945 7.14458 44.7993 6.87435 44.2001 6.60619L43.7916 7.51896ZM47.3409 9.14439C47.9351 9.42126 48.5247 9.69769 49.1097 9.97241L49.5348 9.06724C48.9495 8.79238 48.3588 8.51546 47.7633 8.23798L47.3409 9.14439ZM50.8771 10.8024C51.4722 11.0815 52.0619 11.3572 52.6457 11.6279L53.0663 10.7206C52.4844 10.4508 51.8961 10.1758 51.3017 9.89702L50.8771 10.8024ZM54.4276 12.4454C55.0329 12.7196 55.6313 12.9865 56.2221 13.2441L56.6218 12.3274C56.036 12.072 55.442 11.8071 54.8402 11.5345L54.4276 12.4454ZM58.0324 14.0122C58.6523 14.2672 59.2631 14.5093 59.8643 14.7361L60.2173 13.8005C59.6266 13.5777 59.025 13.3392 58.4128 13.0874L58.0324 14.0122ZM61.7252 15.3972C62.3701 15.6107 63.0029 15.8023 63.6226 15.9688L63.882 15.003C63.2832 14.8422 62.6688 14.6562 62.0394 14.4478L61.7252 15.3972ZM65.5632 16.4116C66.2426 16.5365 66.905 16.6233 67.5485 16.6664L67.6152 15.6686C67.0152 15.6285 66.3912 15.547 65.7439 15.4281L65.5632 16.4116ZM69.5909 16.6427C69.9343 16.6085 70.2712 16.5579 70.6013 16.4896L70.3987 15.5103C70.1048 15.5711 69.8025 15.6167 69.4918 15.6476L69.5909 16.6427ZM70.6013 16.4896C70.9896 16.4092 71.3699 16.3271 71.7417 16.2418L71.5182 15.2671C71.1547 15.3505 70.7815 15.4311 70.3987 15.5103L70.6013 16.4896ZM74.0121 15.6363C74.8036 15.3867 75.5465 15.1012 76.2321 14.7601L75.7867 13.8648C75.1588 14.1772 74.4666 14.4445 73.7114 14.6826L74.0121 15.6363ZM78.2626 13.4181C78.8698 12.8822 79.3927 12.2556 79.8222 11.5159L78.9575 11.0137C78.5832 11.6582 78.1296 12.2017 77.6008 12.6684L78.2626 13.4181ZM80.74 9.26037C80.84 8.88718 80.9244 8.49482 80.9932 8.0821L80.0068 7.9177C79.9429 8.3009 79.8651 8.66162 79.774 9.00155L80.74 9.26037ZM80.9932 8.0821C81.0489 7.74817 81.0847 7.42639 81.1018 7.11694L80.1034 7.06158C80.0883 7.33252 80.0568 7.61786 80.0068 7.9177L80.9932 8.0821ZM80.9334 5.15953C80.7522 4.44185 80.4414 3.83274 80.033 3.3418L79.2642 3.98133C79.5704 4.34947 79.8166 4.82129 79.9638 5.40423L80.9334 5.15953ZM78.3413 2.15609C77.6921 1.92406 76.9894 1.86507 76.2966 1.97597L76.4547 2.9634C76.9889 2.8779 77.5209 2.92483 78.0047 3.09775L78.3413 2.15609ZM74.4155 2.73863C73.8903 3.10069 73.414 3.58115 73.0208 4.17709L73.8556 4.72774C74.1798 4.23622 74.5663 3.84927 74.9831 3.56198L74.4155 2.73863ZM72.2126 5.96909C72.1267 6.27139 72.0572 6.5897 72.0058 6.92387L72.9942 7.07593C73.0395 6.78127 73.1003 6.50351 73.1745 6.24239L72.2126 5.96909ZM72.0058 6.92387C71.95 7.28659 71.9213 7.65082 71.9188 8.01552L72.9188 8.0224C72.921 7.70564 72.9459 7.38994 72.9942 7.07593L72.0058 6.92387ZM72.2 10.1648C72.3804 10.8422 72.6446 11.5122 72.9849 12.1692L73.8729 11.7093C73.563 11.111 73.3264 10.5086 73.1664 9.90749L72.2 10.1648ZM74.1213 13.9591C74.5335 14.5049 74.9983 15.0381 75.5114 15.5553L76.2213 14.851C75.7374 14.3632 75.3024 13.8638 74.9193 13.3564L74.1213 13.9591ZM77.068 16.9567C77.5952 17.383 78.1573 17.7949 78.7515 18.1902L79.3054 17.3576C78.7357 16.9787 78.1988 16.585 77.6967 16.1791L77.068 16.9567ZM80.5333 19.2718C81.1281 19.6011 81.7478 19.9149 82.3904 20.2115L82.8094 19.3035C82.1884 19.0169 81.5906 18.7141 81.0176 18.3969L80.5333 19.2718ZM84.3061 21.0175C84.9423 21.2605 85.5967 21.4872 86.2679 21.6961L86.5651 20.7413C85.9138 20.5386 85.2792 20.3188 84.663 20.0833L84.3061 21.0175ZM88.2659 22.2521C88.928 22.4152 89.6037 22.5612 90.2918 22.689L90.4744 21.7058C89.8052 21.5815 89.1484 21.4396 88.5051 21.2811L88.2659 22.2521ZM92.3385 23.0093C93.0157 23.0959 93.703 23.1649 94.3994 23.2151L94.4713 22.2176C93.7933 22.1688 93.1243 22.1017 92.4653 22.0174L92.3385 23.0093ZM96.4685 23.3076C97.1519 23.3196 97.8427 23.3134 98.5399 23.2881L98.5037 22.2888C97.8245 22.3134 97.1516 22.3194 96.486 22.3077L96.4685 23.3076ZM100.608 23.1577C101.29 23.0964 101.977 23.0166 102.668 22.9174L102.526 21.9276C101.853 22.0242 101.183 22.102 100.519 22.1617L100.608 23.1577ZM104.705 22.5704C105.374 22.4382 106.047 22.2875 106.721 22.1175L106.477 21.1478C105.819 21.3136 105.164 21.4605 104.511 21.5893L104.705 22.5704ZM108.713 21.5606C109.367 21.3597 110.022 21.1403 110.677 20.9016L110.335 19.9619C109.696 20.1948 109.057 20.4088 108.42 20.6048L108.713 21.5606ZM112.608 20.1432C113.234 19.8788 113.86 19.5964 114.486 19.2953L114.053 18.3942C113.442 18.6882 112.83 18.9639 112.219 19.2219L112.608 20.1432ZM116.325 18.3554C116.926 18.03 117.525 17.6869 118.123 17.3255L117.606 16.4697C117.021 16.823 116.435 17.1583 115.849 17.4761L116.325 18.3554ZM119.867 16.2156C120.431 15.8386 120.993 15.4446 121.552 15.0334L120.96 14.2276C120.412 14.6301 119.863 15.0156 119.311 15.3844L119.867 16.2156ZM123.193 13.772C123.723 13.3456 124.251 12.9031 124.776 12.4439L124.118 11.6912C123.603 12.1412 123.086 12.5749 122.566 12.9925L123.193 13.772ZM126.296 11.0604C126.791 10.591 127.283 10.1062 127.773 9.60558L127.057 8.90677C126.577 9.39822 126.094 9.87402 125.608 10.3345L126.296 11.0604ZM129.18 8.11038C129.413 7.85373 129.645 7.59333 129.876 7.32915L129.124 6.67065C128.897 6.93029 128.668 7.18618 128.44 7.43833L129.18 8.11038Z" fill="#707070"/>
</svg>

<svg xmlns="http://www.w3.org/2000/svg" width="131" height="24" fill="none"><path d="M.666 7.628a.5.5 0 00.668.744l-.668-.744zM70.5 16l.101.49L70.5 16zm10-8l-.493-.082L80.5 8zm-8-1l-.494-.076L72.5 7zm57.499-.033a.5.5 0 00-.532-.466l-4.49.3a.5.5 0 00.066.997l3.991-.266.266 3.991a.5.5 0 00.998-.066l-.299-4.49zM1.334 8.372c.246-.22.492-.435.74-.643l-.645-.764c-.255.215-.51.436-.763.663l.668.744zm2.231-1.829a29.585 29.585 0 011.588-1.106l-.545-.839c-.55.357-1.097.738-1.64 1.144l.597.801zm3.231-2.095a26.81 26.81 0 011.702-.868l-.422-.907a28.22 28.22 0 00-1.765.9l.485.875zm3.466-1.613a25.93 25.93 0 011.819-.614l-.285-.958c-.632.187-1.261.4-1.888.637l.354.935zm3.674-1.091a27.207 27.207 0 011.885-.343l-.144-.99c-.653.096-1.305.214-1.955.356l.214.977zm3.791-.554a29.29 29.29 0 011.92-.086l-.013-1c-.662.009-1.323.038-1.983.089l.076.997zm3.843-.054c.639.03 1.28.077 1.92.142l.1-.995a36.473 36.473 0 00-1.974-.146l-.046 1zm3.834.383c.634.096 1.27.207 1.904.332L27.5.87a44.262 44.262 0 00-1.948-.34l-.15.99zm3.792.744c.625.149 1.25.31 1.873.483l.267-.963c-.634-.176-1.27-.34-1.908-.493l-.232.973zm3.732 1.03c.617.193 1.231.394 1.845.604l.324-.946a70.333 70.333 0 00-1.871-.612l-.298.955zm3.673 1.256a99.6 99.6 0 011.815.694l.367-.93a96.37 96.37 0 00-1.835-.702l-.347.938zm3.618 1.425c.6.25 1.198.503 1.792.76l.397-.917c-.598-.26-1.2-.515-1.805-.767l-.384.924zm3.573 1.545c.596.267 1.188.536 1.777.806l.416-.91c-.59-.27-1.186-.54-1.785-.809l-.408.913zm3.549 1.625l1.769.828.425-.905c-.585-.275-1.176-.552-1.772-.829l-.422.906zm3.536 1.658c.595.28 1.185.555 1.769.826l.42-.907c-.582-.27-1.17-.545-1.764-.824l-.425.905zm3.55 1.643c.606.275 1.204.541 1.795.8l.4-.918c-.586-.255-1.18-.52-1.782-.793l-.412.911zm3.605 1.567c.62.255 1.231.497 1.832.724l.353-.936a65.804 65.804 0 01-1.804-.713l-.38.925zm3.693 1.385a34.69 34.69 0 001.898.572l.259-.966a33.59 33.59 0 01-1.843-.555l-.314.95zm3.838 1.015c.68.125 1.342.211 1.986.254l.066-.997a16.62 16.62 0 01-1.871-.24l-.18.983zm4.028.23c.343-.034.68-.084 1.01-.152l-.202-.98a8.755 8.755 0 01-.907.138l.099.995zm1.01-.152c.389-.08.769-.163 1.14-.248l-.223-.975c-.363.084-.737.164-1.12.243l.203.98zm3.411-.854a15.33 15.33 0 002.22-.876l-.445-.895c-.628.312-1.32.58-2.076.818l.301.953zm4.25-2.218a7.613 7.613 0 001.56-1.902l-.865-.502a6.615 6.615 0 01-1.356 1.654l.662.75zM80.74 9.26c.1-.373.184-.765.253-1.178l-.986-.164a11.48 11.48 0 01-.233 1.084l.966.258zm.253-1.178a8.83 8.83 0 00.109-.965l-.999-.055a7.87 7.87 0 01-.096.856l.986.164zm-.06-2.922a4.56 4.56 0 00-.9-1.818l-.769.64c.306.367.553.84.7 1.422l.97-.244zm-2.592-3.004a4.13 4.13 0 00-2.044-.18l.158.987a3.13 3.13 0 011.55.135l.336-.942zm-3.925.583a5.24 5.24 0 00-1.395 1.438l.835.55c.324-.49.71-.878 1.127-1.165l-.568-.823zm-2.203 3.23c-.086.302-.156.62-.207.955l.988.152a7.07 7.07 0 01.18-.834l-.961-.273zm-.207.955a7.512 7.512 0 00-.087 1.092l1 .006c.002-.316.027-.632.075-.946l-.988-.152zm.194 3.24c.18.678.445 1.348.785 2.005l.888-.46a8.904 8.904 0 01-.707-1.802l-.966.258zm1.921 3.795c.413.546.877 1.08 1.39 1.596l.71-.704a14.747 14.747 0 01-1.302-1.495l-.798.603zm2.947 2.998c.527.426 1.09.838 1.683 1.233l.554-.832a21.481 21.481 0 01-1.608-1.179l-.629.778zm3.465 2.315c.595.33 1.215.643 1.857.94l.42-.909a27.452 27.452 0 01-1.792-.906l-.485.875zm3.773 1.745a32.9 32.9 0 001.962.68l.297-.956a31.798 31.798 0 01-1.902-.658l-.357.934zm3.96 1.235c.662.163 1.338.31 2.026.437l.182-.983a34.79 34.79 0 01-1.969-.425l-.24.971zm4.072.757c.678.087 1.365.156 2.061.206l.072-.997a36.411 36.411 0 01-2.006-.2l-.127.991zm4.13.299a38.49 38.49 0 002.072-.02l-.036-1c-.68.025-1.352.031-2.018.02l-.017 1zm4.14-.15a39.178 39.178 0 002.06-.24l-.142-.99c-.673.096-1.343.174-2.007.234l.089.996zm4.097-.588a39.775 39.775 0 002.016-.453l-.244-.97c-.658.167-1.313.314-1.966.442l.194.981zm4.008-1.01c.654-.2 1.309-.42 1.964-.658l-.342-.94a39.61 39.61 0 01-1.915.643l.293.956zm3.895-1.417a42.317 42.317 0 001.878-.848l-.433-.9a42.29 42.29 0 01-1.834.827l.389.921zm3.717-1.788c.601-.325 1.2-.668 1.798-1.03l-.517-.855c-.585.353-1.171.688-1.757 1.006l.476.88zm3.542-2.14a45.756 45.756 0 001.685-1.182l-.592-.805c-.548.402-1.097.788-1.649 1.156l.556.832zm3.326-2.443c.53-.426 1.058-.869 1.583-1.328l-.658-.753c-.515.45-1.032.884-1.552 1.301l.627.78zm3.103-2.712c.495-.469.987-.954 1.477-1.454l-.716-.7c-.48.492-.963.968-1.449 1.428l.688.726zm2.884-2.95c.233-.256.465-.517.696-.78l-.752-.66c-.227.26-.456.516-.684.768l.74.672z" fill="#707070"/></svg>
